X: 1
T:William and Nancy
M:6/8
C:
S:Seabright
N:reinterpretation by SLA
A:Bledington
O:English
R:Jig
%:
%:
%P:A/2(AB)$^2$(AC)$^2$(A)
P:A.(AB)2(AC)2(A)
L:1/8
K:G
Q:C3=96
P:A
|:D|G2 G G>Bd|e2 e d>BG|A2 d B>AG|E2 F G2:|\
P:B
|:d|e2 d B2 d|g>fe d2 d|e2 d B2 d|g>fe d2 \
c|B2 B B>cd|e2 e d>BG|A2 A B>AG|E2 F G2:|\
Q:C3=84
P:C
|:z|\
%
%
d3  \
%
e3|d3   B3|d3   (2gf|e3   d3|d3   e3|d3  \
%
%
B2    \
Q:C3=96
%
d|g>fe d2 \
c|B2 B B>cd|e2 e d>BG|A2 A B>AG|E2 F G2:|
